X:2407
T:Ny Kirree Fo Niaghtey 
T:(The sheep under the snow) 
C:Traditional
O:Isle of Man
N:See also KV 119,223,300,301,398.
Z:Kiaull Vannin 407 
M:3/4 
L:1/8 
Q:90 
K:D 
(B>c)|d2 F2 E2|F2 A2 (B>A)|F2 f2 e2|f4 f>g|a2 g2 a2|(f>e) c2 A2|(B>A) (F>E) (F>A)|B4 B>c| 
(d>e) f2 (d>f)|(e>c) A2 B2|(d>c) (d>e) (f>g)|a4 B>c|(d>e) f2 (d>f)|(e>c) A2 (d>c)|B>A (F>E) F>A|B4|| 

